svgs/light/arrow-rotate-left.svg

<svg xmlns="http://www.w3.org/2000/svg" viewBox="0 0 512 512"><!--! Font Awesome Pro 6.0.0-alpha3 by @fontawesome - https://fontawesome.com License - https://fontawesome.com/license (Commercial License) --><path d="M480 256c0 123.5-100.4 223.9-223.9 223.9c-69.41 0-133.9-31.3-176.7-86.05c-5.438-6.938-4.203-17 2.75-22.44c6.984-5.531 17.03-4.25 22.47 2.75C141.3 421.1 196.5 448 256 448c105.9 0 192-86.13 192-192s-86.13-192-192-192C187.1 64 124.5 100.7 90.15 160H176C184.8 160 192 167.2 192 176S184.8 192 176 192h-128C39.16 192 32 184.8 32 176v-128C32 39.16 39.16 32 48 32S64 39.16 64 48v93.56C104.4 73.87 176.6 32.11 256.1 32.11C379.6 32.11 480 132.5 480 256z"/></svg>

<svg xmlns="http://www.w3.org/2000/svg" viewBox="0 0 512 512"><!--! Font Awesome Pro 6.4.2 by @fontawesome - https://fontawesome.com License - https://fontawesome.com/license (Commercial License) Copyright 2023 Fonticons, Inc. --><path d="M48 192c-8.8 0-16-7.2-16-16V48c0-8.8 7.2-16 16-16s16 7.2 16 16v92.6C103.2 75.5 174.5 32 256 32c123.7 0 224 100.3 224 224s-100.3 224-224 224c-79.9 0-150-41.8-189.7-104.8C59.8 364.8 67.7 352 80 352c6 0 11.4 3.2 14.7 8.2C128.9 413 188.4 448 256 448c106 0 192-86 192-192s-86-192-192-192c-71.1 0-133.1 38.6-166.3 96H176c8.8 0 16 7.2 16 16s-7.2 16-16 16H48z"/></svg>
